**kern	**silbe	**harmony	**phrase	**leadinstrument	**rhyme	**timestamp	**harte
*ICvox	*	*M4/4	*	*	*	*	*M4/4
*VRlead	*	*	*	*	*	*	*
*Hstimme	*	*	*	*	*	*	*
*A:	*	*A:	*	*	*	*	*A:
*M4/4	*	*	*	*	*	*	*
*clefG2	*	*	*	*	*	*	*
r;	.	1r;	.	r	.	0	N.C.
r;	.	1r;	.	r	.	0.232	N.C.
r;	.	1r;	.	r	.	2.943	N.C.
r;	.	1r;	.	r	.	5.654	N.C.
r;	.	1r;	.	r	.	8.365	N.C.
=1	=1	=1	=1	=1	=1	=1	=1
1r	.	2AM	newline	piano	.	11.076	A:maj
.	.	2DM	.	piano	.	12.504	D:maj
=2	=2	=2	=2	=2	=2	=2	=2
4r	.	2AM	.	piano	.	13.931	A:maj
8r	.	.	.	.	.	.	.
16c#	Chi-	.	.	.	.	.	.
16d	-qui-	.	.	.	.	.	.
8e	-ti-	.	.	.	.	.	.
.	.	2DM	.	piano	.	15.359	D:maj
8f#	-ta	.	.	.	.	.	.
16e	tell	.	.	.	.	.	.
16d	me	.	.	.	.	.	.
8c#	what's	.	.	.	.	.	.
=3	=3	=3	=3	=3	=3	=3	=3
*>Letter>B	*>Letter>B	*>Letter>B	*>Letter>B	*>Letter>B	*>Letter>B	*>Letter>B	*>Letter>B
*>Label>Verse	*>Label>Verse	*>Label>Verse	*>Label>Verse	*>Label>Verse	*>Label>Verse	*>Label>Verse	*>Label>Verse
2e	wrong?.	2AM	newline	voice	.	16.786	A:maj
2r	.	2DM	.	voice	.	18.173	D:maj
=4	=4	=4	=4	=4	=4	=4	=4
4r	.	1AM	.	voice	.	19.559	A:maj
8r	.	.	.	.	.	.	.
16c#	You're	.	.	.	.	.	.
16d	en-	.	.	.	.	.	.
4e	-chained	.	.	.	.	.	.
4f#	by	.	.	.	.	.	.
=5	=5	=5	=5	=5	=5	=5	=5
8e	your	1AM	.	voice	.	22.331	A:maj
8d	own	.	.	.	.	.	.
8c#	sor-	.	.	.	(A	.	.
[8B	-row.	.	.	.	a)	.	.
2B]	_	.	.	.	.	.	.
=6	=6	=6	=6	=6	=6	=6	=6
1r	.	1EM	.	voice	.	25.103	E:maj
=7	=7	=7	=7	=7	=7	=7	=7
4.g#	In	2EM	newline	voice	.	27.876	E:maj
16f#	_	.	.	.	.	.	.
16g#	_	.	.	.	.	.	.
4.a	_	2DM	.	voice	.	29.274	D:maj/3
8f#	your	.	.	.	.	.	.
=8	=8	=8	=8	=8	=8	=8	=8
4.e	eyes	2EM	.	voice	.	30.672	E:maj
16B	there	.	.	.	.	.	.
16c#	is	.	.	.	.	.	.
4d	no	2EMm	.	voice	.	32.071	E:7/3
4d	hope	.	.	.	.	.	.
=9	=9	=9	=9	=9	=9	=9	=9
8d	for	2AM	.	voice	.	33.469	A:maj
8c#	to-	.	.	.	.	.	.
8B	-morr-	.	.	.	(A	.	.
[8c#	-ow.	.	.	.	a)	.	.
2c#]	_	2DM	.	voice	.	34.867	D:maj
=10	=10	=10	=10	=10	=10	=10	=10
4r	.	2AM	.	voice	.	36.266	A:maj
8r	.	.	.	.	.	.	.
16c#	How	.	.	.	.	.	.
16d	I	.	.	.	.	.	.
8e	hate	2DM	.	voice	.	37.664	D:maj
8f#	to	.	.	.	.	.	.
16e	see	.	.	.	.	.	.
16d	you	.	.	.	.	.	.
8c#	like	.	.	.	.	.	.
=11	=11	=11	=11	=11	=11	=11	=11
2e	this.	2AM	newline	voice	.	39.062	A:maj
2r	.	2DM	.	voice	.	40.44	D:maj
=12	=12	=12	=12	=12	=12	=12	=12
4r	.	1AM	.	voice	.	41.818	A:maj
8r	.	.	.	.	.	.	.
16c#	There	.	.	.	.	.	.
16d	is	.	.	.	.	.	.
4e	no	.	.	.	.	.	.
4f#	way	.	.	.	.	.	.
=13	=13	=13	=13	=13	=13	=13	=13
8g#	you	2C#m	.	voice	.	44.573	C#:min
16f#	can	.	.	.	.	.	.
16e	de-	.	.	.	.	.	.
8g#	-ny	.	.	.	(B	.	.
[8e	it.	.	.	.	b)	.	.
4e]	_	2C#m	.	voice	.	45.951	C#:min(9)
4r	.	.	.	.	.	.	.
=14	=14	=14	=14	=14	=14	=14	=14
1r	.	2C#m	.	voice	.	47.328	C#:min
.	.	2C#m	.	voice	.	48.706	C#:min(9)
=15	=15	=15	=15	=15	=15	=15	=15
4.g#	I	2EM	newline	voice	.	50.084	E:maj
16f#	_	.	.	.	.	.	.
16g#	_	.	.	.	.	.	.
4.a	_	2DM	.	voice	.	51.481	D:maj
8f#	can	.	.	.	.	.	.
=16	=16	=16	=16	=16	=16	=16	=16
4.e	see	1EM	.	voice	.	52.878	E:maj
16B	that	.	.	.	.	.	.
16c#	you're	.	.	.	.	.	.
4d	oh	.	.	.	.	.	.
4d	so	.	.	.	.	.	.
=17	=17	=17	=17	=17	=17	=17	=17
8.d	sad,	2AM	.	voice	.	55.673	A:maj
16c#	so	.	.	.	.	.	.
8B	qui-	.	.	.	(B	.	.
[8A	-et.	.	.	.	b)	.	.
2A]	_	2DM	.	voice	.	57.071	D:maj
=18	=18	=18	=18	=18	=18	=18	=18
4r	.	1AM	.	voice	.	58.468	A:maj
8r	.	.	.	.	.	.	.
16c#	Chi-	.	.	.	.	.	.
16d	-qui-	.	.	.	.	.	.
8e	-ti-	.	.	.	.	.	.
8f#	-ta	.	.	.	.	.	.
16e	tell	.	.	.	.	.	.
16d	me	.	.	.	.	.	.
8c#	the	.	.	.	.	.	.
=19	=19	=19	=19	=19	=19	=19	=19
*>Letter>B	*>Letter>B	*>Letter>B	*>Letter>B	*>Letter>B	*>Letter>B	*>Letter>B	*>Letter>B
*>Label>Verse	*>Label>Verse	*>Label>Verse	*>Label>Verse	*>Label>Verse	*>Label>Verse	*>Label>Verse	*>Label>Verse
2e	truth.	2AM	newline	voice	.	61.263	A:maj
2r	.	2DM	.	voice	.	62.687	D:maj
=20	=20	=20	=20	=20	=20	=20	=20
4r	.	1AM	.	voice	.	64.111	A:maj
8r	.	.	.	.	.	.	.
16c#	I'm	.	.	.	.	.	.
16d	a	.	.	.	.	.	.
4e	shoul-	.	.	.	.	.	.
4f#	-der	.	.	.	.	.	.
=21	=21	=21	=21	=21	=21	=21	=21
8e	you	2AM	.	voice	.	66.959	A:maj
8d	can	.	.	.	.	.	.
8c#	cry	.	.	.	B	.	.
[8B	on.	.	.	.	.	.	.
2B]	_	2EM	.	voice	.	68.383	E:maj
=22	=22	=22	=22	=22	=22	=22	=22
1r	.	1EM	.	voice	.	69.807	E:maj
=23	=23	=23	=23	=23	=23	=23	=23
4.g#	Your	2EM	newline	voice	.	72.655	E:maj
16f#	_	.	.	.	.	.	.
16g#	_	.	.	.	.	.	.
4.a	_	2DM	.	voice	.	74.074	D:maj
8f#	best	.	.	.	.	.	.
=24	=24	=24	=24	=24	=24	=24	=24
4.e	friend;	1EM	.	voice	.	75.492	E:maj
16B	I'm	.	.	.	.	.	.
16c#	the	.	.	.	.	.	.
4d	one	.	.	.	.	.	.
4d	you	.	.	.	.	.	.
=25	=25	=25	=25	=25	=25	=25	=25
8d	must	1AM	.	voice	.	78.328	A:maj
16c#	re-	.	.	.	.	.	.
[16B	-ly	.	.	.	B	.	.
8B]	_	.	.	.	.	.	.
[8c#	on.	.	.	.	.	.	.
2c#]	_	.	.	.	.	.	.
=26	=26	=26	=26	=26	=26	=26	=26
4r	.	1AM	.	voice	.	81.164	A:maj
8r	.	.	.	.	.	.	.
16c#	You	.	.	.	.	.	.
16d	were	.	.	.	.	.	.
8e	al-	.	.	.	.	.	.
8f#	-ways	.	.	.	.	.	.
16e	sure	.	.	.	.	.	.
16d	of	.	.	.	.	.	.
8c#	your-	.	.	.	.	.	.
=27	=27	=27	=27	=27	=27	=27	=27
4e	-self.	2AM	newline	voice	.	84.001	A:maj
4r	.	.	.	.	.	.	.
2r	.	2DM	.	voice	.	85.428	D:maj
=28	=28	=28	=28	=28	=28	=28	=28
4r	.	1AM	.	voice	.	86.856	A:maj
8r	.	.	.	.	.	.	.
16c#	Now	.	.	.	.	.	.
16d	I	.	.	.	.	.	.
4e	see	.	.	.	.	.	.
4f#	you've	.	.	.	.	.	.
=29	=29	=29	=29	=29	=29	=29	=29
8g#	bro-	2C#m	.	voice	.	89.712	C#:min
16f#	-ken	.	.	.	.	.	.
16e	a	.	.	.	.	.	.
8g#	fea-	.	.	.	(C	.	.
[8e	-ther.	.	.	.	c)	.	.
2e]	_	2C#m	.	voice	.	91.139	C#:min(9)
=30	=30	=30	=30	=30	=30	=30	=30
1r	.	2C#m	.	voice	.	92.567	C#:min
.	.	2C#m	.	voice	.	93.995	C#:min(9)
=31	=31	=31	=31	=31	=31	=31	=31
4.g#	I	2EM	newline	voice	.	95.423	E:maj
16f#	_	.	.	.	.	.	.
16g#	_	.	.	.	.	.	.
4.a	_	2DM	.	voice	.	96.846	D:maj
8f#	_	.	.	.	.	.	.
=32	=32	=32	=32	=32	=32	=32	=32
4e	hope	1EM	.	voice	.	98.27	E:maj
8r	.	.	.	.	.	.	.
16d	we	.	.	.	.	.	.
16e	can	.	.	.	.	.	.
8r	.	.	.	.	.	.	.
[8f#	patch	.	.	.	.	.	.
8f#]	_	.	.	.	.	.	.
16f#	it	.	.	.	.	.	.
16f#	up	.	.	.	.	.	.
=33	=33	=33	=33	=33	=33	=33	=33
16r	.	2AM	.	voice	.	101.117	A:maj
8e	to-	.	.	.	.	.	.
[16d	-ge-	.	.	.	(C	.	.
8d]	_	.	.	.	.	.	.
[8c#	-ther.	.	.	.	c)	.	.
2c#]	_	2DM	.	voice	.	102.541	D:maj
=34	=34	=34	=34	=34	=34	=34	=34
4r	.	1AM	.	voice	.	103.964	A:maj
8r	.	.	.	.	.	.	.
16f#	Chi-	.	.	.	.	.	.
16g#	-qui-	.	.	.	.	.	.
8a	-ti-	.	.	.	.	.	.
8b	-ta	.	.	.	.	.	.
16a	you	.	.	.	.	.	.
16g#	and	.	.	.	.	.	.
8f#	I	.	.	.	.	.	.
=35	=35	=35	=35	=35	=35	=35	=35
*>Letter>C	*>Letter>C	*>Letter>C	*>Letter>C	*>Letter>C	*>Letter>C	*>Letter>C	*>Letter>C
*>Label>Chorus	*>Label>Chorus	*>Label>Chorus	*>Label>Chorus	*>Label>Chorus	*>Label>Chorus	*>Label>Chorus	*>Label>Chorus
[1a	know	1DM	newline	voice	D	106.811	D:maj
=36	=36	=36	=36	=36	=36	=36	=36
*M5/4	*	*M5/4	*M5/4	*M5/4	*	*M5/4	*M5/4
4a]	_	4%5DM	.	voice	.	109.661	D:maj
8r	.	.	.	.	.	.	.
16f#	how	.	.	.	.	.	.
16g#	the	.	.	.	.	.	.
8a	heart-	.	.	.	.	.	.
8b	-aches	.	.	.	.	.	.
16a	come	.	.	.	.	.	D:maj
16g#	and	.	.	.	.	.	.
8f#	they	.	.	.	.	.	.
8a	go,	.	.	.	D	.	.
16f#	and	.	.	.	.	.	.
16g#	the	.	.	.	.	.	.
=37	=37	=37	=37	=37	=37	=37	=37
*M4/4	*	*M4/4	*M4/4	*M4/4	*	*M4/4	*M4/4
8a	scars	1AM	.	voice	.	113.223	A:maj
8e	they're	.	.	.	.	.	.
8d	leav-	.	.	.	(E	.	.
[8c#	-ing.	.	.	.	e)	.	.
2c#]	_	.	.	.	.	.	.
=38	=38	=38	=38	=38	=38	=38	=38
4r	.	1AM	.	voice	.	116.073	A:maj
8c#	You'll	.	.	.	.	.	.
16d	be	.	.	.	.	.	.
[16e	dan-	.	.	.	.	.	.
8e]	_	.	.	.	.	.	.
8f#	-cing	.	.	.	.	.	.
8g#	once	.	.	.	.	.	.
16a	a-	.	.	.	.	.	.
[16g#	-gain;	.	.	.	F	.	.
=39	=39	=39	=39	=39	=39	=39	=39
4.g#]	_	2EM	newline	voice	.	118.923	E:maj
16f#	and	.	.	.	.	.	.
16g#	the	.	.	.	.	.	.
[4a	pain	2DM	.	voice	.	120.341	D:maj
8a]	_	.	.	.	.	.	.
8f#	will	.	.	.	.	.	.
=40	=40	=40	=40	=40	=40	=40	=40
4e	end.	1EM	.	voice	F	121.76	E:maj
8r	.	.	.	.	.	.	.
16B	You	.	.	.	.	.	.
16c#	will	.	.	.	.	.	.
4d	have	.	.	.	.	.	.
4d	no	.	.	.	.	.	.
=41	=41	=41	=41	=41	=41	=41	=41
8d	time	1AM	.	voice	.	124.597	A:maj
16c#	for	.	.	.	.	.	.
[16B	grie-	.	.	.	(E	.	.
8B]	_	.	.	.	.	.	.
[8c#	-ving.	.	.	.	e)	.	.
2c#_	_	.	.	.	.	.	.
=42	=42	=42	=42	=42	=42	=42	=42
4c#]	_	1AM	.	voice	.	127.434	A:maj
8r	.	.	.	.	.	.	.
16f#	Chi-	.	.	.	.	.	.
16g#	-qui-	.	.	.	.	.	.
8a	-ti-	.	.	.	.	.	.
8b	-ta	.	.	.	.	.	.
16a	you	.	.	.	.	.	.
16g#	and	.	.	.	.	.	.
8f#	I	.	.	.	B	.	.
=43	=43	=43	=43	=43	=43	=43	=43
[1a	cry;	1DM	newline	voice	B	130.271	D:maj
=44	=44	=44	=44	=44	=44	=44	=44
*M5/4	*	*M5/4	*M5/4	*M5/4	*	*M5/4	*M5/4
4a]	_	4%5DM	.	voice	.	133.126	D:maj
8r	.	.	.	.	.	.	.
16f#	but	.	.	.	.	.	.
16g#	the	.	.	.	.	.	.
8a	sun	.	.	.	.	.	.
8b	is	.	.	.	.	.	.
16a	still	.	.	.	.	.	D:maj
16g#	in	.	.	.	.	.	.
8f#	the	.	.	.	.	.	.
8a	sky,	.	.	.	B	.	.
8b	and	.	.	.	.	.	.
=45	=45	=45	=45	=45	=45	=45	=45
*M4/4	*	*M4/4	*M4/4	*M4/4	*	*M4/4	*M4/4
8cc#	shin-	2AM	.	voice	B	136.695	A:maj
16b	-ing	.	.	.	.	.	.
16a	a-	.	.	.	.	.	.
8cc#	-bove	.	.	.	.	.	.
[8a	you.	.	.	.	.	.	.
2a]	_	2AM	.	voice	.	138.122	A:maj6
=46	=46	=46	=46	=46	=46	=46	=46
4r	.	2AMM	.	voice	.	139.55	A:maj7
8c#	Let	.	.	.	.	.	.
16d	me	.	.	.	.	.	.
[16e	hear	.	.	.	.	.	.
8e]	_	2AM	.	voice	.	140.977	A:maj6
8f#	you	.	.	.	.	.	.
8g#	sing	.	.	.	.	.	.
8b	once	.	.	.	.	.	.
=47	=47	=47	=47	=47	=47	=47	=47
4.g#	more|	2EM	newline	voice	G	142.405	E:maj
16f#	like	.	.	.	.	.	.
16g#	you	.	.	.	.	.	.
[4a	did	2DM	.	voice	.	143.837	D:maj
8a]	_	.	.	.	.	.	.
8f#	be-	.	.	.	.	.	.
=48	=48	=48	=48	=48	=48	=48	=48
4e	-fore.	1EM	.	voice	G	145.27	E:maj
8r	.	.	.	.	.	.	.
16d	Sing	.	.	.	.	.	.
16e	a	.	.	.	.	.	.
4f#	new	.	.	.	.	.	.
4f#	song	.	.	.	.	.	.
=49	=49	=49	=49	=49	=49	=49	=49
8f#	Chi-	1AM	.	voice	.	148.135	A:maj
16e	-qui-	.	.	.	.	.	.
[16d	-ti-	.	.	.	.	.	.
8d]	_	.	.	.	.	.	.
[8c#	-ta.	.	.	.	.	.	.
2c#]	_	.	.	.	.	.	.
=50	=50	=50	=50	=50	=50	=50	=50
2r	.	1AM	.	voice	.	151	A:maj
4.b	Try	.	.	.	B	.	.
8a	once	.	.	.	.	.	.
=51	=51	=51	=51	=51	=51	=51	=51
4.g#	more|	2EM	newline	voice	G	153.865	E:maj
16f#	like	.	.	.	.	.	.
16g#	you	.	.	.	.	.	.
4.a	did	2DM	.	voice	.	155.319	D:maj
8f#	be-	.	.	.	.	.	.
=52	=52	=52	=52	=52	=52	=52	=52
4e	-fore.	1EM	.	voice	G	156.774	E:maj
8r	.	.	.	.	.	.	.
16B	Sing	.	.	.	.	.	.
16c#	a	.	.	.	.	.	.
4d	new	.	.	.	.	.	.
4d	song	.	.	.	.	.	.
=53	=53	=53	=53	=53	=53	=53	=53
8d	Chi-	2AM	.	voice	.	159.683	A:maj
16c#	-qui-	.	.	.	.	.	.
[16B	-ti-	.	.	.	.	.	.
8B]	_	.	.	.	.	.	.
[8A	-ta.	.	.	.	.	.	.
2A_	_	2DM	.	voice	.	161.138	D:maj
=54	=54	=54	=54	=54	=54	=54	=54
4.A]	_	1AM	.	voice	.	162.593	A:maj
16c#	So	.	.	.	.	.	.
16d	the	.	.	.	.	.	.
8e	walls	.	.	.	.	.	.
8f#	came	.	.	.	.	.	.
16e	tum-	.	.	.	.	.	.
16d	-bl-	.	.	.	.	.	.
8c#	-ing	.	.	.	.	.	.
=55	=55	=55	=55	=55	=55	=55	=55
*>Letter>B	*>Letter>B	*>Letter>B	*>Letter>B	*>Letter>B	*>Letter>B	*>Letter>B	*>Letter>B
*>Label>Verse	*>Label>Verse	*>Label>Verse	*>Label>Verse	*>Label>Verse	*>Label>Verse	*>Label>Verse	*>Label>Verse
2e	down;	2AM	newline	voice	.	165.502	A:maj
2r	.	2DM	.	voice	.	166.924	D:maj
=56	=56	=56	=56	=56	=56	=56	=56
4r	.	1AM	.	voice	.	168.347	A:maj
8r	.	.	.	.	.	.	.
16c#	and	.	.	.	.	.	.
16d	your	.	.	.	.	.	.
4e	love's	.	.	.	.	.	.
4f#	a	.	.	.	.	.	.
=57	=57	=57	=57	=57	=57	=57	=57
8e	blown	2AM	.	voice	.	171.191	A:maj
8d	out	.	.	.	.	.	.
8c#	can-	.	.	.	(H	.	.
[8B	-dle.	.	.	.	h)	.	.
2B]	_	2EM	.	voice	.	172.614	E:maj
=58	=58	=58	=58	=58	=58	=58	=58
1r	.	1EM	.	voice	.	174.036	E:maj
=59	=59	=59	=59	=59	=59	=59	=59
4.g#	All	2EM	newline	voice	.	176.881	E:maj
16f#	_	.	.	.	.	.	.
16g#	_	.	.	.	.	.	.
4.a	_	2DM	.	voice	.	178.321	D:maj
8f#	is	.	.	.	.	.	.
=60	=60	=60	=60	=60	=60	=60	=60
4e	gone;	1EM	.	voice	.	179.761	E:maj
8r	.	.	.	.	.	.	.
16B	and	.	.	.	.	.	.
16c#	it	.	.	.	.	.	.
4d	seems	.	.	.	.	.	.
4d	too	.	.	.	.	.	.
=61	=61	=61	=61	=61	=61	=61	=61
8d	hard	2AM	.	voice	.	182.642	A:maj
8c#	to	.	.	.	.	.	.
8B	han-	.	.	.	(H	.	.
[8c#	-dle.	.	.	.	h)	.	.
2c#]	_	2DM	.	voice	.	184.082	D:maj
=62	=62	=62	=62	=62	=62	=62	=62
4r	.	1AM	.	voice	.	185.522	A:maj
8r	.	.	.	.	.	.	.
16c#	Chi-	.	.	.	.	.	.
16d	-qui-	.	.	.	.	.	.
8e	-ti-	.	.	.	.	.	.
8f#	-ta	.	.	.	.	.	.
16e	tell	.	.	.	.	.	.
16d	me	.	.	.	.	.	.
8c#	the	.	.	.	.	.	.
=63	=63	=63	=63	=63	=63	=63	=63
2e	truth.	2AM	newline	voice	.	188.403	A:maj
2r	.	2DM	.	voice	.	189.827	D:maj
=64	=64	=64	=64	=64	=64	=64	=64
4r	.	1AM	.	voice	.	191.25	A:maj
8r	.	.	.	.	.	.	.
16c#	There	.	.	.	.	.	.
16d	is	.	.	.	.	.	.
4e	no	.	.	.	.	.	.
4f#	way	.	.	.	.	.	.
=65	=65	=65	=65	=65	=65	=65	=65
8g#	you	2C#m	.	voice	.	194.098	C#:min
16f#	can	.	.	.	.	.	.
16e	de-	.	.	.	.	.	.
8g#	-ny	.	.	.	(B	.	.
[8e	it.	.	.	.	b)	.	.
2e]	_	2C#m	.	voice	.	195.521	C#:min(9)
=66	=66	=66	=66	=66	=66	=66	=66
1r	.	2C#m	.	voice	.	196.945	C#:min
.	.	2C#m	.	voice	.	198.369	C#:min(9)
=67	=67	=67	=67	=67	=67	=67	=67
4.g#	I	2EM	newline	voice	.	199.793	E:maj
16f#	_	.	.	.	.	.	.
16g#	_	.	.	.	.	.	.
4.a	_	2DM	.	voice	.	201.215	D:maj
8f#	_	.	.	.	.	.	.
=68	=68	=68	=68	=68	=68	=68	=68
4e	see	1EM	.	voice	.	202.637	E:maj
8r	.	.	.	.	.	.	.
16B	that	.	.	.	.	.	.
16c#	you're	.	.	.	.	.	.
4d	oh	.	.	.	.	.	.
4d	so	.	.	.	.	.	.
=69	=69	=69	=69	=69	=69	=69	=69
4d	sad,	2AM	.	voice	.	205.482	A:maj
8c#	so	.	.	.	.	.	.
8B	qui-	.	.	.	(B	.	.
2A	-et	.	.	.	b)	.	.
.	.	2DM	.	voice	.	206.904	D:maj
=70	=70	=70	=70	=70	=70	=70	=70
4r	.	1AM	.	voice	.	208.326	A:maj
8r	.	.	.	.	.	.	.
16f#	Chi-	.	.	.	.	.	.
16g#	-qui-	.	.	.	.	.	.
8a	-ti-	.	.	.	.	.	.
8b	-ta	.	.	.	.	.	.
16a	you	.	.	.	.	.	.
16g#	and	.	.	.	.	.	.
8f#	I	.	.	.	.	.	.
=71	=71	=71	=71	=71	=71	=71	=71
*>Letter>C	*>Letter>C	*>Letter>C	*>Letter>C	*>Letter>C	*>Letter>C	*>Letter>C	*>Letter>C
*>Label>Chorus	*>Label>Chorus	*>Label>Chorus	*>Label>Chorus	*>Label>Chorus	*>Label>Chorus	*>Label>Chorus	*>Label>Chorus
1a	know	1DM	newline	voice	D	211.171	D:maj
=72	=72	=72	=72	=72	=72	=72	=72
*M5/4	*	*M5/4	*M5/4	*M5/4	*	*M5/4	*M5/4
4r	.	4%5DM	.	voice	.	214.029	D:maj
8r	.	.	.	.	.	.	.
16f#	how	.	.	.	.	.	.
16g#	the	.	.	.	.	.	.
8a	hear-	.	.	.	.	.	.
8b	-taches	.	.	.	.	.	.
16a	come	.	.	.	.	.	D:maj
16g#	and	.	.	.	.	.	.
8f#	they	.	.	.	.	.	.
8a	go,	.	.	.	D	.	.
16f#	and	.	.	.	.	.	.
16g#	the	.	.	.	.	.	.
=73	=73	=73	=73	=73	=73	=73	=73
*M4/4	*	*M4/4	*M4/4	*M4/4	*	*M4/4	*M4/4
8a	scars	2AM	.	voice	.	217.603	A:maj
8e	they're	.	.	.	.	.	.
8d	leav-	.	.	.	(E	.	.
[8c#	-ing	.	.	.	e)	.	.
2c#]	_	2AM	.	voice	.	219.032	A:maj6
=74	=74	=74	=74	=74	=74	=74	=74
4r	.	2AMM	.	voice	.	220.461	A:maj7
8c#	You'll	.	.	.	.	.	.
16d	be	.	.	.	.	.	.
[16e	dan-	.	.	.	.	.	.
8e]	_	2AM	.	voice	.	221.89	A:maj6
8f#	-cing	.	.	.	.	.	.
8g#	once	.	.	.	.	.	.
16a	a-	.	.	.	.	.	.
[16g#	-gain;	.	.	.	F	.	.
=75	=75	=75	=75	=75	=75	=75	=75
4.g#]	_	2EM	newline	voice	.	223.32	E:maj
16f#	and	.	.	.	.	.	.
16g#	the	.	.	.	.	.	.
4.a	pain	2DM	.	voice	.	224.743	D:maj
8f#	will	.	.	.	.	.	.
=76	=76	=76	=76	=76	=76	=76	=76
4e	end.	1EM	.	voice	F	226.166	E:maj
8r	.	.	.	.	.	.	.
16B	You	.	.	.	.	.	.
16c#	will	.	.	.	.	.	.
4d	have	.	.	.	.	.	.
4d	no	.	.	.	.	.	.
=77	=77	=77	=77	=77	=77	=77	=77
8d	time	1AM	.	voice	.	229.011	A:maj
16c#	for	.	.	.	.	.	.
[16B	griev-	.	.	.	(E	.	.
8B]	_	.	.	.	.	.	.
[8c#	-ing.	.	.	.	e)	.	.
2c#]	_	.	.	.	.	.	.
=78	=78	=78	=78	=78	=78	=78	=78
4r	.	1AM	.	voice	.	231.857	A:maj
8r	.	.	.	.	.	.	.
16f#	Chi-	.	.	.	.	.	.
16g#	-qui-	.	.	.	.	.	.
8a	-ti-	.	.	.	.	.	.
8b	-ta	.	.	.	.	.	.
16a	you	.	.	.	.	.	.
16g#	and	.	.	.	.	.	.
8f#	I	.	.	.	B	.	.
=79	=79	=79	=79	=79	=79	=79	=79
1a	cry;	1DM	newline	voice	B	234.703	D:maj
=80	=80	=80	=80	=80	=80	=80	=80
*M5/4	*	*M5/4	*M5/4	*M5/4	*	*M5/4	*M5/4
4r	.	4%5DM	.	voice	.	237.554	D:maj
8r	.	.	.	.	.	.	.
16f#	but	.	.	.	.	.	.
16g#	the	.	.	.	.	.	.
8a	sun	.	.	.	.	.	.
8b	is	.	.	.	.	.	.
16a	still	.	.	.	.	.	D:maj
16g#	in	.	.	.	.	.	.
8f#	the	.	.	.	.	.	.
8a	sky,	.	.	.	B	.	.
8b	and	.	.	.	.	.	.
=81	=81	=81	=81	=81	=81	=81	=81
*M4/4	*	*M4/4	*M4/4	*M4/4	*	*M4/4	*M4/4
8cc#	shin-	2AM	.	voice	B	241.117	A:maj
16b	-ing	.	.	.	.	.	.
16a	a-	.	.	.	.	.	.
8cc#	-bove	.	.	.	.	.	.
[8a	you	.	.	.	.	.	.
2a]	_	2AM	.	voice	.	242.543	A:maj6
=82	=82	=82	=82	=82	=82	=82	=82
4r	.	2AMM	.	voice	.	243.968	A:maj7
8c#	Let	.	.	.	.	.	.
16d	me	.	.	.	.	.	.
[16e	hear	.	.	.	.	.	.
8e]	_	2AM	.	voice	.	245.393	A:maj6
8f#	you	.	.	.	.	.	.
8g#	sing	.	.	.	.	.	.
8a	once	.	.	.	.	.	.
=83	=83	=83	=83	=83	=83	=83	=83
4.g#	more|	2EM	newline	voice	G	246.819	E:maj
16f#	like	.	.	.	.	.	.
16g#	you	.	.	.	.	.	.
4.a	did	2DM	.	voice	.	248.248	D:maj
8f#	be-	.	.	.	.	.	.
=84	=84	=84	=84	=84	=84	=84	=84
4e	-fore.	1EM	.	voice	G	249.677	E:maj
8r	.	.	.	.	.	.	.
16d	Sing	.	.	.	.	.	.
16e	a	.	.	.	.	.	.
4f#	new	.	.	.	.	.	.
4f#	song	.	.	.	.	.	.
=85	=85	=85	=85	=85	=85	=85	=85
8f#	Chi-	1AM	.	voice	.	252.534	A:maj
16e	-qui-	.	.	.	.	.	.
[16d	-ti-	.	.	.	.	.	.
8d]	_	.	.	.	.	.	.
[8c#	-ta	.	.	.	.	.	.
2c#]	_	.	.	.	.	.	.
=86	=86	=86	=86	=86	=86	=86	=86
2r	.	1AM	.	voice	.	255.392	A:maj
4.b	Try	.	.	.	.	.	.
8a	once	.	.	.	.	.	.
=87	=87	=87	=87	=87	=87	=87	=87
4.g#	more|	2EM	newline	voice	G	258.25	E:maj
16f#	like	.	.	.	.	.	.
16g#	you	.	.	.	.	.	.
4.a	did	2DM	.	voice	.	259.713	D:maj
8f#	be-	.	.	.	.	.	.
=88	=88	=88	=88	=88	=88	=88	=88
4.e	-fore.	1EM	.	voice	G	261.176	E:maj
16d	Sing	.	.	.	.	.	.
16e	a	.	.	.	.	.	.
4f#	new	.	.	.	.	.	.
4f#	song	.	.	.	.	.	.
=89	=89	=89	=89	=89	=89	=89	=89
8f#	Chi-	2AM	.	voice	.	264.102	A:maj
16e	-qui-	.	.	.	.	.	.
[16d	-ti-	.	.	.	.	.	.
8d]	_	.	.	.	.	.	.
[8c#	-ta.	.	.	.	.	.	.
2c#]	_	2DM	.	voice	.	265.566	D:maj
=90	=90	=90	=90	=90	=90	=90	=90
2r	.	1AM	.	voice	.	267.029	A:maj
4.b	Try	.	.	.	.	.	.
8a	once	.	.	.	.	.	.
=91	=91	=91	=91	=91	=91	=91	=91
4.g#	more|	2EM	newline	voice	G	269.955	E:maj
16f#	like	.	.	.	.	.	.
16g#	you	.	.	.	.	.	.
4.a	did	2DM	.	voice	.	271.467	D:maj
8f#	be-	.	.	.	.	.	.
=92	=92	=92	=92	=92	=92	=92	=92
4e	-fore.	1EM	.	voice	G	272.98	E:maj
8r	.	.	.	.	.	.	.
16B	Sing	.	.	.	.	.	.
16c#	a	.	.	.	.	.	.
4d	new	.	.	.	.	.	.
4d	song	.	.	.	.	.	.
=93	=93	=93	=93	=93	=93	=93	=93
8f#	Chi-	1AM	.	voice	.	276.004	A:maj
8e	-qui-	.	.	.	.	.	.
8d	-ti-	.	.	.	.	.	.
[8c#	-ta	.	.	.	.	.	.
2c#]	_	.	.	.	.	.	.
=94	=94	=94	=94	=94	=94	=94	=94
r;	.	1r;	.	r	.	279.028	N.C.
=95	=95	=95	=95	=95	=95	=95	=95
*>Letter>D	*>Letter>D	*>Letter>D	*>Letter>D	*>Letter>D	*>Letter>D	*>Letter>D	*>Letter>D
*>Label>Outro	*>Label>Outro	*>Label>Outro	*>Label>Outro	*>Label>Outro	*>Label>Outro	*>Label>Outro	*>Label>Outro
1r	.	1DM	newline	piano	.	282.053	D:maj
=96	=96	=96	=96	=96	=96	=96	=96
1r	.	1DM	.	piano	.	284.859	D:maj
=97	=97	=97	=97	=97	=97	=97	=97
1r	.	1AM	.	piano	.	287.666	A:maj
=98	=98	=98	=98	=98	=98	=98	=98
1r	.	1AM	.	piano	.	290.472	A:maj
=99	=99	=99	=99	=99	=99	=99	=99
1r	.	1DM	newline	piano	.	293.279	D:maj
=100	=100	=100	=100	=100	=100	=100	=100
1r	.	1DM	.	piano	.	296.1	D:maj
=101	=101	=101	=101	=101	=101	=101	=101
1r	.	1AM	.	piano	.	298.921	A:maj
=102	=102	=102	=102	=102	=102	=102	=102
1r	.	1AM	.	piano	.	301.742	A:maj
=103	=103	=103	=103	=103	=103	=103	=103
*>Label>>Fadeout	*>Label>>Fadeout	*>Label>>Fadeout	*>Label>>Fadeout	*>Label>>Fadeout	*>Label>>Fadeout	*>Label>>Fadeout	*>Label>>Fadeout
1r	.	1DM	newline	piano	.	304.563	D:maj
=104	=104	=104	=104	=104	=104	=104	=104
1r	.	1DM	.	piano	.	307.361	D:maj
=105	=105	=105	=105	=105	=105	=105	=105
1r	.	1AM	.	piano	.	310.159	A:maj
=106	=106	=106	=106	=106	=106	=106	=106
1r	.	1AM	.	piano	.	312.956	A:maj
=107	=107	=107	=107	=107	=107	=107	=107
1r	.	1DM	newline	piano	.	315.754	D:maj
=108	=108	=108	=108	=108	=108	=108	=108
1r	.	1DM	.	piano	.	317.551	D:maj
=109	=109	=109	=109	=109	=109	=109	=109
1r	.	1AM	.	piano	.	319.348	A:maj
=110	=110	=110	=110	=110	=110	=110	=110
1r	.	1AM	.	piano	.	321.145	A:maj
r;	.	1r;	.	r	.	322.943	N.C.
r;	.	1r;	.	r	.	324.676	N.C.
*-	*-	*-	*-	*-	*-	*-	*-
!!!BillboardChartDate: 1979/12/15
!!!BillboardPeak: 29
!!!BillboardWeeksOnChart: 12
!!!COC: Abba
!!!ENC: Nathaniel Condit-Schultz
!!!EST: Awating manual error checking and editing.
!!!OTL: Chiquitita
!!!RDF**chordsym: original McGill chord annotation + (implied pitch class set, with bass pitch in first position)
!!!RDF**harmony: **recip + pitch class of root + harmonic quality
!!!RDF**leadinstrument: original McGill primary instrumentation annotation
!!!RDF**phrase: newline = linebreak in original McGill transcription
!!!RDF**timestamp: McGill audio timestamp in seconds
!!!RDT: 2017/01/12/
!!!SampleActualRank: 35
!!!SampleID#: 0183
!!!SampleTargetRank: 34
